img/logos/snap-svg.svg

<?xml version="1.0" encoding="UTF-8" standalone="no" ?>
<svg width="256px" height="425px" viewBox="0 0 256 425" version="1.1" xmlns="http://www.w3.org/2000/svg" xmlns:xlink="http://www.w3.org/1999/xlink" preserveAspectRatio="xMinYMin meet">
    <defs>
        <linearGradient x1="50%" y1="-352.925786%" x2="50%" y2="96.7175267%" id="linearGradient-1">
            <stop stop-color="#002E3B" offset="0%"></stop>
            <stop stop-color="#002639" offset="100%"></stop>
        </linearGradient>
        <linearGradient x1="50%" y1="-2.80786187%" x2="50%" y2="428.758892%" id="linearGradient-2">
            <stop stop-color="#002E3B" offset="0%"></stop>
            <stop stop-color="#002639" offset="100%"></stop>
        </linearGradient>
        <radialGradient cx="16.4234038%" cy="142.999709%" fx="16.4234038%" fy="142.999709%" r="295.57111%" id="radialGradient-3">
            <stop stop-color="#00BC85" offset="0%"></stop>
            <stop stop-color="#149D91" offset="100%"></stop>
        </radialGradient>
        <radialGradient cx="16.423338%" cy="-42.999755%" fx="16.423338%" fy="-42.999755%" r="357.003966%" id="radialGradient-4">
            <stop stop-color="#00BC85" offset="0%"></stop>
            <stop stop-color="#149D91" offset="100%"></stop>
        </radialGradient>
        <radialGradient cx="11.4670327%" cy="-40.4580495%" fx="11.4670327%" fy="-40.4580495%" r="343.189366%" id="radialGradient-5">
            <stop stop-color="#004473" offset="0%"></stop>
            <stop stop-color="#00345F" offset="100%"></stop>
        </radialGradient>
    </defs>
    <g>
        <path d="M65.6992339,330.300644 L0.107733463,362.384436 L127.400289,424.384842 L255.039336,362.18981 L189.28052,329.651265 L127.352045,360.40471 L65.6992339,330.300644 Z" fill="url(#linearGradient-1)"></path>
        <path d="M57.6019991,98.1748765 L57.6019991,98.1541795 L127.531267,64.0476413 L197.46571,98.1541795 L255.003891,62.1986373 L127.484698,0 L0,62.1796642 L0,62.2348584 L57.5537042,98.1990237 L57.6019991,98.1748765 L57.6019991,98.1748765 Z" fill="url(#linearGradient-2)"></path>
        <path d="M0.15618046,298.428426 L63.071162,267.624645 L127.784793,299.667263 L0.15618046,362.461971 L0.15618046,298.428426 Z" fill="url(#radialGradient-3)"></path>
        <path d="M196.677541,99.4103235 C196.67754,132.999495 196.677539,200.177839 196.677539,200.177839 L126.336262,234.601641 L191.022434,266.940614 L254.000917,236.143726 L254.00091,62.1907831 L196.677541,98.1665853 L196.677541,99.4103235 Z" fill="url(#radialGradient-4)"></path>
        <path d="M255.003891,298.216498 L57.5889764,199.96591 L57.5889774,98.1815418 L1.42108547e-14,62.2302408 L1.42108547e-14,63.1375243 L1.42108547e-14,235.931797 L255.003891,362.253488 L255.003891,298.216498 Z" fill="url(#radialGradient-5)"></path>
    </g>
</svg>

<svg width="256" height="425" viewBox="0 0 256 425" xmlns="http://www.w3.org/2000/svg" preserveAspectRatio="xMinYMin meet"><defs><linearGradient x1="50%" y1="-352.926%" x2="50%" y2="96.718%" id="a"><stop stop-color="#002E3B" offset="0%"/><stop stop-color="#002639" offset="100%"/></linearGradient><linearGradient x1="50%" y1="-2.808%" x2="50%" y2="428.759%" id="b"><stop stop-color="#002E3B" offset="0%"/><stop stop-color="#002639" offset="100%"/></linearGradient><radialGradient cx="16.423%" cy="143%" fx="16.423%" fy="143%" r="295.571%" id="c"><stop stop-color="#00BC85" offset="0%"/><stop stop-color="#149D91" offset="100%"/></radialGradient><radialGradient cx="16.423%" cy="-43%" fx="16.423%" fy="-43%" r="357.004%" id="d"><stop stop-color="#00BC85" offset="0%"/><stop stop-color="#149D91" offset="100%"/></radialGradient><radialGradient cx="11.467%" cy="-40.458%" fx="11.467%" fy="-40.458%" r="343.189%" id="e"><stop stop-color="#004473" offset="0%"/><stop stop-color="#00345F" offset="100%"/></radialGradient></defs><path d="M65.7 330.3L.107 362.385l127.292 62 127.64-62.194-65.76-32.54-61.928 30.755L65.7 330.3z" fill="url(#a)"/><path d="M57.602 98.175v-.02l69.93-34.107 69.934 34.106L255.004 62.2 127.484 0 0 62.18v.055L57.554 98.2l.048-.025z" fill="url(#b)"/><path d="M.156 298.428l62.915-30.803 64.715 32.042L.155 362.462v-64.034z" fill="url(#c)"/><path d="M196.678 99.41v100.768l-70.342 34.424 64.686 32.34 62.98-30.798V62.19l-57.324 35.977v1.243z" fill="url(#d)"/><path d="M255.004 298.216L57.59 199.966V98.182L0 62.23v173.702l255.004 126.32v-64.036z" fill="url(#e)"/></svg>
